packages/assets/static/images/icons/image-broken.svg

<svg width="24" height="24" viewBox="0 0 24 24" xmlns="http://www.w3.org/2000/svg">
<path d="M20.25 3.75049H3.75C3.35218 3.75049 2.97064 3.90852 2.68934 4.18983C2.40804 4.47113 2.25 4.85266 2.25 5.25049V18.7505C2.25 19.1483 2.40804 19.5298 2.68934 19.8111C2.97064 20.0925 3.35218 20.2505 3.75 20.2505H9.75C9.90742 20.2505 10.0608 20.201 10.1886 20.1089C10.3163 20.0169 10.4118 19.887 10.4616 19.7377L11.8519 15.5677L15.2812 14.1971C15.3754 14.159 15.461 14.1024 15.5329 14.0305C15.6047 13.9587 15.6613 13.8731 15.6994 13.7789L17.07 10.3524L21.24 8.96205C21.3888 8.91179 21.5181 8.81607 21.6096 8.6884C21.7011 8.56074 21.7502 8.40756 21.75 8.25049V5.25049C21.75 4.85266 21.592 4.47113 21.3107 4.18983C21.0294 3.90852 20.6478 3.75049 20.25 3.75049ZM10.5384 14.7633L9.20906 18.7505H3.75V16.1255L8.625 11.2505L11.4769 14.1024L10.9688 14.3039C10.868 14.3447 10.7774 14.407 10.7031 14.4863C10.6288 14.5656 10.5726 14.6601 10.5384 14.7633ZM20.25 7.70955L16.2628 9.03893C16.1594 9.07339 16.0647 9.12999 15.9853 9.20479C15.906 9.2796 15.8439 9.3708 15.8034 9.47205L14.4234 12.9239L12.9919 13.5005L9.68531 10.1939C9.40404 9.91283 9.02265 9.75493 8.625 9.75493C8.22735 9.75493 7.84596 9.91283 7.56469 10.1939L3.75 14.0039V5.25049H20.25V7.70955ZM21.4387 10.8033C21.3423 10.7338 21.2307 10.6882 21.1132 10.6702C20.9957 10.6523 20.8756 10.6626 20.7628 10.7002L18.5316 11.4446C18.4282 11.4789 18.3336 11.5354 18.2542 11.61C18.1749 11.6846 18.1128 11.7757 18.0722 11.8767L16.7306 15.2302L13.3772 16.5717C13.2761 16.6123 13.1851 16.6745 13.1105 16.7538C13.0358 16.8331 12.9794 16.9278 12.945 17.0311L12.2006 19.2624C12.1629 19.3752 12.1525 19.4953 12.1703 19.6129C12.1881 19.7305 12.2337 19.8422 12.3032 19.9388C12.3727 20.0353 12.4642 20.1139 12.5701 20.1681C12.676 20.2223 12.7932 20.2505 12.9122 20.2505H20.25C20.6478 20.2505 21.0294 20.0925 21.3107 19.8111C21.592 19.5298 21.75 19.1483 21.75 18.7505V11.4127C21.75 11.2939 21.7218 11.1767 21.6677 11.0709C21.6136 10.9652 21.5351 10.8737 21.4387 10.8042V10.8033ZM20.25 18.7505H13.9528L14.2575 17.8364L17.5866 16.5052C17.6808 16.4671 17.7663 16.4105 17.8382 16.3387C17.91 16.2668 17.9666 16.1812 18.0047 16.0871L19.3359 12.758L20.25 12.4533V18.7505Z"/>
</svg>

<svg viewBox="0 0 24 24" xmlns="http://www.w3.org/2000/svg" aria-hidden="true" fill="currentColor"><path d="M20.25 3.75H3.75a1.5 1.5 0 0 0-1.5 1.5v13.5a1.5 1.5 0 0 0 1.5 1.5h6a.75.75 0 0 0 .712-.512l1.39-4.17 3.43-1.37a.76.76 0 0 0 .417-.42l1.371-3.426 4.17-1.39a.75.75 0 0 0 .51-.712v-3a1.5 1.5 0 0 0-1.5-1.5m-9.712 11.013L9.21 18.75H3.75v-2.625l4.875-4.874 2.852 2.851-.508.202a.75.75 0 0 0-.43.46M20.25 7.71l-3.987 1.329a.75.75 0 0 0-.46.433l-1.38 3.452-1.431.577-3.307-3.307a1.5 1.5 0 0 0-2.12 0l-3.815 3.81V5.25h16.5zm1.189 3.093a.75.75 0 0 0-.676-.103l-2.231.745a.75.75 0 0 0-.46.432l-1.341 3.353-3.354 1.342a.75.75 0 0 0-.432.46l-.744 2.23a.75.75 0 0 0 .711.988h7.338a1.5 1.5 0 0 0 1.5-1.5v-7.337a.75.75 0 0 0-.311-.609M20.25 18.75h-6.297l.305-.914 3.329-1.33a.76.76 0 0 0 .418-.419l1.33-3.329.915-.305z"/></svg>
